X: 2
T:Father O'Flynn's
M:6/8
L:1/8
R:Jig
K:DMaj
|:dAF DFA|ded cBA|dcd ede|fef gfe|dAF DFA|ded cBA|dcd efg|fdcd3:|:
fdf fga|ecA ABc|dcd Bed|cAAA2=c|BGB Bcd|AFD DFA|dcd efg|fdcd3:|
